X: 27956
T: Mourne Mountains, The
R: reel
M: 4/4
K: Gmajor
|:BG G2 GEDG|E3G A2 GE|DEGA B3d|ed d2(3Bcd gd|
BG G2 GEDG|E3G A2 GE|DEGA B3d|egdc BG G2:|
|:dg g2 gedg|eaag a2 ga|bg g2 agef|gedc BG G2|
g3a gedg|eaag a2ga|bg g2 agef|1 gedc BG G2:|2 gedc BGdc||

